!!!COM: Bach, Johann Sebastian
!!!CDT: 1685/02/21/-1750/07/28/
!!!OPR: Sonata for solo violin, No. 3 in C Major
!!!OTL: Movement 4: Allegro assai
!!!ODT: 1720///
!!!SCT: BWV 1005
**kern	**dynam
*Ivioln	*Ivioln
*>[A,A,B,B]	*>[A,A,B,B]
*>norep[A,B]	*>norep[A,B]
=1-	=1-
*>A	*>A
*clefG2	*clefG2
*k[]	*k[]
*M3/4	*M3/4
*MM112	*MM112
(16cc\LL	.
16dd\	.
16ee\	.
16ff\JJ	.
8gg\L)	.
8cc\J	.
16dd\LL	.
16cc\	.
16b\	.
16a\JJ	.
=2	=2
(16g\LL	.
16a\	.
16b\	.
16cc\JJ	.
16dd\LL	.
16ee\	.
16ff\)	.
16aa\JJ	.
16gg\LL	.
16ff\	.
16ee\	.
16dd\JJ	.
=3	=3
(16cc\LL	.
16dd\	.
16ee\	.
16ff\JJ	.
8gg\L)	.
8cc\J	.
16dd\LL	.
16cc\	.
16b\	.
16a\JJ	.
=4	=4
(16g/LL	.
16a/	.
16b/	.
16dd/JJ	.
16cc/LL)	.
16b/	.
16a/	.
16g/JJ	.
16f/LL	.
16e/	.
16f/	.
16d/JJ	.
=5	=5
16e/LL	.
(16cc/	.
16b/	.
16cc/JJ	.
16dd/LL	.
16cc/	.
16b/	.
16cc/JJ)	.
16gg\LL	.
(16cc\	.
16b\	.
16cc\JJ)	.
=6	=6
16e\LL	.
16cc\	.
16gg\	.
16cc\JJ	.
16aa\LL	.
16cc\	.
16bb-\	.
16cc\JJ	.
16aa\LL	.
16cc\	.
16gg\	.
16cc\JJ	.
=7	=7
16f/LL	.
(16cc/	.
16b/	.
16cc/JJ	.
16dd/LL	.
16cc/	.
16b/	.
16cc/JJ)	.
16aa\LL	.
(16cc\	.
16b\	.
16cc\JJ)	.
=8	=8
16f\LL	.
16cc\	.
16aa\	.
16cc\JJ	.
16f/LL	.
16cc/	.
16e/	.
16cc/JJ	.
16f/LL	.
16cc/	.
16d/	.
16cc/JJ	.
=9	=9
16e/LL	.
(16cc/	.
16b/	.
16cc/JJ	.
16dd/LL	.
16cc/	.
16b/	.
16cc/JJ)	.
16gg\LL	.
(16cc\	.
16b\	.
16cc\JJ)	.
=10	=10
16e\LL	.
16cc\	.
16gg\	.
16cc\JJ	.
16aa\LL	.
16cc\	.
16bb-\	.
16cc\JJ	.
16aa\LL	.
16cc\	.
16gg\	.
16cc\JJ	.
=11	=11
16f/LL	.
(16cc/	.
16b/	.
16cc/JJ	.
16dd/LL	.
16cc/	.
16b/	.
16cc/JJ)	.
16aa\LL	.
(16cc\	.
16b\	.
16cc\JJ)	.
=12	=12
16f\LL	.
16cc\	.
16aa\	.
16cc\JJ	.
16f/LL	.
16cc/	.
16e/	.
16cc/JJ	.
16f/LL	.
16cc/	.
16d/	.
16cc/JJ	.
=13	=13
16e/LL	.
(16cc/	.
16b/	.
16cc/JJ)	.
16gg\LL	.
(16cc\	.
16b\	.
16cc\JJ)	.
16a\LL	.
(16cc\	.
16b\	.
16cc\JJ)	.
=14	=14
16d/LL	.
(16cc/	.
16b/	.
16cc/JJ)	.
16ff/LL	.
(16cc/	.
16b/	.
16cc/JJ)	.
16g/LL	.
(16cc/	.
16b/	.
16cc/JJ)	.
=15	=15
(16c/LL	.
16d/	.
16e/	.
16f/JJ	.
16g\LL)	.
16cc\	.
16dd\	.
16ee\JJ	.
16ff\LL	.
16ee\	.
16dd\	.
16cc\JJ	.
=16	=16
(16dd\LL	.
16cc\	.
16b\	.
16a\JJ	.
8g\L)	.
8dd\J	.
16f/LL	.
16e/	.
16f/	.
16d/JJ	.
=17	=17
(16e/LL	.
16g/	.
16a/	.
16b/JJ	.
8cc\L)	.
8gg\J	.
16b-/LL	.
16a/	.
16b-/	.
16g/JJ	.
=18	=18
(16a\LL	.
16b\	.
16cc#\)	.
16bb-\JJ	.
16gg\LL	.
16ff\	.
16ee\	.
16dd\JJ	.
16cc#\LL	.
16b\	.
16a\	.
16g\JJ	.
=19	=19
(16f/LL	.
16e/	.
16d/	.
16e/JJ	.
8f/L)	.
8dd/J	.
16a/LL	.
16g/	.
16f/	.
16e/JJ	.
=20	=20
(16d/LL	.
16c/	.
16B/	.
16c/JJ	.
16d/LL)	.
16a/	.
16f/	.
16e/JJ	.
16d/LL	.
16c/	.
16B/	.
16A/JJ	.
=21	=21
16G/LL	.
(16f/	.
16e/	.
16d/JJ)	.
16G/LL	.
(16e/	.
16d/	.
16c/JJ)	.
16G/LL	.
(16g/	.
16f/	.
16e/JJ)	.
=22	=22
16d/LL	.
(16B/	.
16A/	.
16G/JJ)	.
16f/LL	.
(16B/	.
16A/	.
16G/JJ)	.
16d/LL	.
(16c/	.
16B/	.
16A/JJ)	.
=23	=23
16G/LL	.
(16f/	.
16e/	.
16d/JJ)	.
16G/LL	.
(16e/	.
16d/	.
16c/JJ)	.
16G/LL	.
(16g/	.
16f/	.
16e/JJ)	.
=24	=24
16d/LL	.
(16B/	.
16A/	.
16G/JJ)	.
16g/LL	.
(16B/	.
16A/	.
16G/JJ)	.
16d/LL	.
(16c/	.
16B/	.
16A/JJ)	.
=25	=25
16G/LL	.
(16f/	.
16e/	.
16f/JJ)	.
16b/LL	.
(16f/	.
16e/	.
16f/JJ)	.
16dd/LL	.
(16f/	.
16e/	.
16f/JJ)	.
=26	=26
16G/LL	.
16e/	.
16dd/	.
16e/JJ	.
16cc/LL	.
16e/	.
16b/	.
16e/JJ	.
16cc/LL	.
16e/	.
16G/	.
16e/JJ	.
=27	=27
16A/LL	.
(16g/	.
16f#/	.
16g/JJ)	.
16cc#/LL	.
(16g/	.
16f#/	.
16g/JJ)	.
16ee/LL	.
(16g/	.
16f#/	.
16g/JJ)	.
=28	=28
16A/LL	.
16f#/	.
16ee/	.
16f#/JJ	.
16dd/LL	.
16f#/	.
16cc#/	.
16f#/JJ	.
16dd/LL	.
16f#/	.
16A/	.
16f#/JJ	.
=29	=29
16d/LL	.
16cc/	.
(16b/	.
16cc/JJ	.
16dd/LL	.
16cc/	.
16b/)	.
16cc/JJ	.
16aa\LL	.
(16cc\	.
16b\	.
16cc\JJ)	.
=30	=30
16d\LL	.
(16cc\	.
16aa\	.
16cc\JJ)	.
16b\LL	.
16aa\	.
16cc\	.
16aa\JJ	.
16b\LL	.
16aa\	.
16a\	.
16aa\JJ	.
=31	=31
16d/LL	.
16b/	.
(16a/	.
16b/JJ	.
16cc/LL	.
16b/	.
16a/	.
16b/JJ)	.
16aa\LL	.
(16b\	.
16a\	.
16b\JJ)	.
=32	=32
16d\LL	.
16b\	.
16gg\	.
16b\JJ	.
16a\LL	.
16gg\	.
16b\	.
16gg\JJ	.
16cc#\LL	.
16gg\	.
16dd\	.
16gg\JJ	.
=33	=33
16d/LL	.
(16cc#/	.
16b/	.
16cc#/JJ	.
16dd/LL	.
16cc#/	.
16b/	.
16cc#/JJ)	.
16gg\LL	.
(16cc#\	.
16b\	.
16cc#\JJ)	.
=34	=34
16d\LL	.
16cc#\	.
16gg\	.
16cc#\JJ	.
16ee\LL	.
16gg\	.
16cc#\	.
16gg\JJ	.
16a\LL	.
16gg\	.
16cc#\	.
16gg\JJ	.
=35	=35
16d\LL	.
16dd\	.
16gg\	.
16ee\JJ	.
16ff#\LL	.
16dd\	.
16gg\	.
16ee\JJ	.
16ff#\LL	.
16dd\	.
16gg\	.
16ee\JJ	.
=36	=36
16ff#\LL	.
16ee\	.
16dd\	.
16ee\JJ	.
16ff#\LL	.
16gg\	.
16aa\	.
16bb\JJ	.
16ccc\LL	.
16bb\	.
16ccc\	.
16aa\JJ	.
=37	=37
16dd\LL	.
(16ccc\	.
16bb-\	.
16aa\JJ)	.
16dd\LL	.
(16bb-\	.
16aa\	.
16gg\JJ)	.
16dd\LL	.
(16ddd\	.
16ccc\	.
16bb-\JJ)	.
=38	=38
16aa\LL	.
(16ff#\	.
16ee\	.
16dd\JJ)	.
16ccc\LL	.
(16ff#\	.
16ee\	.
16dd\JJ)	.
(16aa\LL	.
16gg\	.
16ff#\	.
16ee\JJ)	.
=39	=39
16dd\LL	.
(16cc\	.
16b-\	.
16a\JJ)	.
16dd\LL	.
(16b-\	.
16a\	.
16g\JJ)	.
(16ee-\LL	.
16dd\	.
16cc\	.
16b-\JJ)	.
=40	=40
16a/LL	.
(16f#/	.
16e/	.
16d/JJ)	.
16cc/LL	.
(16f#/	.
16e/	.
16d/JJ)	.
16ff#\LL	.
16dd\	.
16ee\	.
16ff#\JJ	.
=41	=41
(16gg\LL	.
16aa\	.
16bb-\	.
16ccc\JJ	.
8ddd\L)	.
8gg\J	.
16bb-\LL	.
16aa\	.
16gg\	.
16ff#\JJ	.
=42	=42
16gg\LL	.
(16dd\	.
16cc\	.
16b\JJ)	.
(16dd\LL	.
16cc\	.
16b\	.
16a\JJ)	.
4g/	.
=43!|:	=43!|:
*>B	*>B
(16g/LL	.
16a/	.
16b/	.
16cc/JJ	.
8dd/L)	.
8g/J	.
16a/LL	.
16g/	.
16f#/	.
16e/JJ	.
=44	=44
(16d/LL	.
16e/	.
16f#/	.
16g/JJ	.
16a/LL	.
16b/	.
16cc/)	.
16ee/JJ	.
16dd/LL	.
16cc/	.
16b/	.
16a/JJ	.
=45	=45
(16g/LL	.
16a/	.
16b/	.
16cc/JJ	.
8dd/L)	.
8g/J	.
16a/LL	.
16g/	.
16f#/	.
16e/JJ	.
=46	=46
(16d/LL	.
16e/	.
16f#/)	.
16a/JJ	.
16g/LL	.
16f#/	.
16e/	.
16d/JJ	.
16c/LL	.
16B/	.
16c/	.
16A/JJ	.
=47	=47
16B/LL	.
(16g/	.
16f#/	.
16g/JJ	.
16a/LL	.
16g/	.
16f#/	.
16g/JJ)	.
16dd/LL	.
(16g/	.
16f#/	.
16g/JJ)	.
=48	=48
16B/LL	.
16g/	.
16dd/	.
16g/JJ	.
16ee/LL	.
16g/	.
16ff/	.
16g/JJ	.
16ee/LL	.
16g/	.
16dd/	.
16g/JJ	.
=49	=49
16c/LL	.
(16g/	.
16f#/	.
16g/JJ	.
16a/LL	.
16g/	.
16f#/	.
16g/JJ)	.
16ee/LL	.
(16g/	.
16f#/	.
16g/JJ)	.
=50	=50
16c/LL	.
16g/	.
16ee/	.
16g/JJ	.
16c/LL	.
16g/	.
16B/	.
16g/JJ	.
16c/LL	.
16g/	.
16A/	.
16g/JJ	.
=51	=51
16B/LL	.
(16g/	.
16f#/	.
16g/JJ	.
16a/LL	.
16g/	.
16f#/	.
16g/JJ)	.
16dd/LL	.
(16g/	.
16f#/	.
16g/JJ)	.
=52	=52
16B/LL	.
16g/	.
16dd/	.
16g/JJ	.
16ee/LL	.
16g/	.
16ff/	.
16g/JJ	.
16ee/LL	.
16g/	.
16dd/	.
16g/JJ	.
=53	=53
16c/LL	.
(16g/	.
16f#/	.
16g/JJ	.
16a/LL	.
16g/	.
16f#/	.
16g/JJ)	.
16ee/LL	.
(16g/	.
16f#/	.
16g/JJ)	.
=54	=54
16c/LL	.
16g/	.
16ee/	.
16g/JJ	.
16c/LL	.
16g/	.
16d/	.
16g/JJ	.
16e/LL	.
16g/	.
16d/	.
16g/JJ	.
=55	=55
16c#/LL	.
(16a/	.
16g#/	.
16a/JJ	.
16b/LL	.
16a/	.
16g#/	.
16a/JJ)	.
16ee/LL	.
(16a/	.
16g#/	.
16a/JJ)	.
=56	=56
16c#/LL	.
16a/	.
16ee/	.
16a/JJ	.
16ff/LL	.
16a/	.
16gg/	.
16a/JJ	.
16ff/LL	.
16a/	.
16ee/	.
16a/JJ	.
=57	=57
16d/LL	.
(16a/	.
16g#/	.
16a/JJ	.
16b/LL	.
16a/	.
16g#/	.
16a/JJ)	.
16ff/LL	.
(16a/	.
16g#/	.
16a/JJ)	.
=58	=58
16d/LL	.
16a/	.
16ff/	.
16a/JJ	.
16d/LL	.
16a/	.
16c#/	.
16a/JJ	.
16d/LL	.
16a/	.
16B/	.
16a/JJ	.
=59	=59
16c#/LL	.
(16a/	.
16g#/	.
16a/JJ	.
16b/LL	.
16a/	.
16g#/	.
16a/JJ)	.
16ee/LL	.
(16a/	.
16g#/	.
16a/JJ)	.
=60	=60
16c#/LL	.
16a/	.
16ee/	.
16a/JJ	.
16ff/LL	.
16a/	.
16gg/	.
16a/JJ	.
16ff/LL	.
16a/	.
16ee/	.
16a/JJ	.
=61	=61
16d/LL	.
(16a/	.
16g#/	.
16a/JJ	.
16b/LL	.
16a/	.
16g#/	.
16a/JJ)	.
16ff/LL	.
(16a/	.
16g#/	.
16a/JJ)	.
=62	=62
16d/LL	.
16a/	.
16ff/	.
16a/JJ	.
16d/LL	.
16a/	.
16e/	.
16a/JJ	.
16f/LL	.
16a/	.
16d/	.
16a/JJ	.
=63	=63
(16g\LL	.
16a\	.
16b-\	.
16cc\JJ	.
8dd\L)	.
8bb-\J	.
16f/LL	.
16e/	.
16f/	.
16d/JJ	.
=64	=64
16e/LL	.
(16g/	.
16a/	.
16b/JJ	.
16cc\LL	.
16dd\	.
16ee\	.
16ff\JJ)	.
16gg\LL	.
16aa\	.
16bb-\	.
16gg\JJ	.
=65	=65
(16aa\LL	.
16gg\	.
16ff\	.
16ee\JJ	.
8ff\L)	.
8aa\J	.
16e/LL	.
16d/	.
16e/	.
16c/JJ	.
=66	=66
16d/LL	.
(16f/	.
16g/	.
16a/JJ	.
16b-\LL	.
16cc\	.
16dd\	.
16ee\JJ)	.
16ff\LL	.
16gg\	.
16aa\	.
16ff\JJ	.
=67	=67
(16gg\LL	.
16ff\	.
16ee\	.
16dd\JJ	.
16cc#\LL	.
16dd\	.
16ee\)	.
16a\JJ	.
16g/LL	.
16f/	.
16g/	.
16e/JJ	.
=68	=68
(16a/LL	.
16g/	.
16f/	.
16e/JJ	.
16d/LL	.
16e/	.
16f/)	.
16c/JJ	.
16B-/LL	.
16A/	.
16B-/	.
16G/JJ	.
=69	=69
16A/LL	.
(16g/	.
16f/	.
16e/JJ)	.
16A/LL	.
(16f/	.
16e/	.
16d/JJ)	.
16A/LL	.
(16a/	.
16g/	.
16f/JJ)	.
=70	=70
16e/LL	.
(16c#/	.
16B/	.
16A/JJ)	.
16g/LL	.
(16c#/	.
16B/	.
16A/JJ)	.
(16e/LL	.
16d/	.
16c#/	.
16B/JJ)	.
=71	=71
16A/LL	.
(16g/	p
16f/	.
16e/JJ)	.
16A/LL	.
(16f/	.
16e/	.
16d/JJ)	.
16A/LL	.
(16a/	.
16g/	.
16f/JJ)	.
=72	=72
16e/LL	.
(16c#/	.
16B/	.
16A/JJ)	.
16a/LL	.
(16c#/	.
16B/	.
16A/JJ)	.
(16e/LL	.
16d/	.
16c#/	.
16B/JJ)	.
=73	=73
16A/LL	.
(16g/	f
16f#/	.
16g/JJ)	.
16cc#/LL	.
(16g/	.
16f#/	.
16g/JJ)	.
16ee/LL	.
(16g/	.
16f#/	.
16g/JJ)	.
=74	=74
16A/LL	.
16f/	.
16ee/	.
16f/JJ	.
16dd/LL	.
16f/	.
16cc#/	.
16f/JJ	.
16dd/LL	.
16f/	.
16A/	.
16f/JJ	.
=75	=75
16G#/LL	.
(16f/	.
16e/	.
16f/JJ)	.
16b/LL	.
(16f/	.
16e/	.
16f/JJ)	.
16dd/LL	.
(16f/	.
16e/	.
16f/JJ)	.
=76	=76
16G#/LL	.
16f/	.
16dd/	.
16f/JJ	.
16G#/LL	.
16e/	.
16d/	.
16e/JJ	.
16c/LL	.
16e/	.
16B/	.
16e/JJ	.
=77	=77
16A/LL	.
(16e/	.
16f#/	.
16g#/JJ	.
16a/LL)	.
16b/	.
16cc/	.
16a/JJ	.
(16cc/LL	.
16b/	.
16a/	.
16g#/JJ)	.
=78	=78
(16a/LL	.
16cc/	.
16b/	.
16a/JJ)	.
(16ee/LL	.
16dd/	.
16cc/	.
16b/JJ	.
16a/LL	.
16g/	.
16f/	.
16e/JJ)	.
=79	=79
16f\LL	.
16a\	.
16b\	.
16cc#\JJ	.
16dd\LL	.
16ee\	.
16ff\	.
16dd\JJ	.
(16ff\LL	.
16ee\	.
16dd\	.
16cc\JJ)	.
=80	=80
16gg\LL	.
(16dd\	.
16cc\	.
16b\JJ)	.
(16dd/LL	.
16cc/	.
16b/	.
16a/JJ	.
16g/LL	.
16f/	.
16e/	.
16d/JJ)	.
=81	=81
16e/LL	.
16g/	.
16a/	.
16b/JJ	.
16cc\LL	.
16dd\	.
16ee\	.
16ff\JJ	.
16gg\LL	.
(16ee\	.
16dd\	.
16cc\JJ)	.
=82	=82
16aa\LL	.
(16cc\	.
16b-\	.
16a\JJ)	.
(16cc/LL	.
16b-/	.
16a/	.
16g/JJ	.
16f/LL	.
16e/	.
16d/	.
16c/JJ)	.
=83	=83
16d/LL	.
16f/	.
16g/	.
16a/JJ	.
16b\LL	.
16cc\	.
16dd\	.
16ee\JJ	.
16ff\LL	.
(16ee\	.
16dd\	.
16cc\JJ)	.
=84	=84
16bb\LL	.
(16ff\	.
16ee\	.
16dd\JJ	.
16cc\LL	.
16b\	.
16a\	.
16g\JJ)	.
16f/LL	.
16e/	.
16f/	.
16d/JJ	.
=85	=85
16e/LL	.
16g/	.
16d/	.
16g/JJ	.
16e/LL	.
16g/	.
16cc/	.
16g/JJ	.
16ee/LL	.
16g/	.
16cc/	.
16g/JJ	.
=86	=86
16b\LL	.
16dd\	.
16a\	.
16dd\JJ	.
16b\LL	.
16dd\	.
16gg\	.
16dd\JJ	.
16bb\LL	.
16dd\	.
16gg\	.
16dd\JJ	.
=87	=87
16ee\LL	.
16gg\	.
16dd\	.
16gg\JJ	.
16cc\LL	.
16gg\	.
16b\	.
16gg\JJ	.
16a\LL	.
16gg\	.
16aa\	.
16gg\JJ	.
=88	=88
16ff#\LL	.
16ee\	.
16dd\	.
16ee\JJ	.
16ff#\LL	.
16gg\	.
16aa\	.
16bb\JJ	.
16ccc\LL	.
16ddd\	.
16eee\	.
16fff#\JJ	.
=89	=89
16ggg\LL	.
16ddd\	.
16bb\	.
16ddd\JJ	.
16gg\LL	.
16ddd\	.
16aa\	.
16ddd\JJ	.
16bb\LL	.
16ddd\	.
16gg\	.
16ddd\JJ	.
=90	=90
16fff\LL	.
16ddd\	.
16bb\	.
16ddd\JJ	.
16gg\LL	.
16ddd\	.
16aa\	.
16ddd\JJ	.
16bb\LL	.
16ddd\	.
16gg\	.
16ddd\JJ	.
=91	=91
16eee\LL	.
16ccc\	.
16bb\	.
16ccc\JJ	.
16gg\LL	.
16ccc\	.
16eee\	.
16ccc\JJ	.
16ggg\LL	.
16ccc\	.
16eee\	.
16ccc\JJ	.
=92	=92
16ddd\LL	.
16bb\	.
16aa\	.
16bb\JJ	.
16gg\LL	.
16bb\	.
16ddd\	.
16bb\JJ	.
16ggg\LL	.
16bb\	.
16ddd\	.
16bb\JJ	.
=93	=93
16a\LL	.
16gg\	.
16ccc\	.
16bb\JJ	.
16aa\LL	.
16ccc\	.
16gg\	.
16ccc\JJ	.
16ff#\LL	.
16ccc\	.
16ee\	.
16ccc\JJ	.
=94	=94
16d\LL	.
16cc\	.
16aa\	.
16gg\JJ	.
16ff#\LL	.
16aa\	.
16ee\	.
16aa\JJ	.
16dd\LL	.
16aa\	.
16cc\	.
16aa\JJ	.
=95	=95
16b\LL	.
16dd\	.
16gg\	.
16ff#\JJ	.
16gg\LL	.
16dd\	.
16ee\	.
16cc\JJ	.
16dd\LL	.
16b\	.
16cc\	.
16a\JJ	.
=96	=96
16b\LL	.
16g\	.
16cc\	.
16a\JJ	.
16b\LL	.
16g\	.
16cc\	.
16a\JJ	.
16b\LL	.
16g\	.
16dd\	.
16b\JJ	.
=97	=97
16g\LL	.
(16ff\	.
16ee-\	.
16dd\JJ)	.
16g\LL	.
(16ee-\	.
16dd\	.
16cc\JJ)	.
16g\LL	.
(16gg\	.
16ff\	.
16ee-\JJ)	.
=98	=98
16dd\LL	.
(16b\	.
16a\	.
16g\JJ)	.
16ff\LL	.
(16b\	.
16a\	.
16g\JJ)	.
(16dd\LL	.
16cc\	.
16b\	.
16a\JJ)	.
=99	=99
16g/LL	.
(16f/	.
16e-/	.
16d/JJ)	.
16g/LL	.
(16e-/	.
16d/	.
16c/JJ)	.
(16a-/LL	.
16g/	.
16f/	.
16e-/JJ)	.
=100	=100
16d/LL	.
(16B/	.
16A/	.
16G/JJ)	.
16f/LL	.
(16B/	.
16A/	.
16G/JJ)	.
16b/LL	.
16g/	.
16a/	.
16b/JJ	.
=101	=101
(16cc\LL	.
16dd\	.
16ee\	.
16ff\JJ	.
8gg\L)	.
8cc\J	.
16ee\LL	.
16dd\	.
16cc\	.
16b\JJ	.
=102	=102
16cc/LL	.
(16g/	.
16f/	.
16e/JJ)	.
(16g/LL	.
16f/	.
16e/	.
16d/JJ)	.
4c/	.
==:|!	==:|!
*-	*-
